X:1
%
T:Gleanntan Reel [3]
T:Glountain Reel
M:4/4
L:1/8
R:Reel
S:CRÉ V, No. 122  (1999)
K:D
D2 FA d2 AF | GFEF GFEF | D2 FA dfed | 93Bcd eg fd d2 :|
f4 {g}fedc | (3Bcd Ad BdAd | fded fded | ABde fd d2 |
fdeg fded | BdAd (3Bcd AB | d2 ef {g}gfge | a2 ag fd d2 ||

